X: 3
P: the Blackthorn Stick
R: jig
O:
B:
D:
Z: 1998 by John Chambers <jc@trillian.mit.edu>
N:
M: 6/8
L: 1/8
K: G
|: "G"gfg "C"ege | "G"dBG "C"AGE | "G"DGG "D7"FGA | "G"BGB "D2"A2d \
|  "G"gfg "C"age | "G"dBG "C"AGE | "G"DGG "D7"FGA | "G"BGG G3 :|
d \
|: "G"edd gdd | edd gdd | ede "C"gfg | "G"edB "D2"A2d \
|  "G"gfg "C"age | "G"dBG "C"AGE | "G"DGG "D7"FGA | "G"BGG G3 :|
